X: 77
T:Tyson's Hornpipe. BF13.076
M:4/4
Q:160
S:J.Lishman()MS,c1825,Lakes,Browne Coll.
R:Hornpipe
O:England
A:Lakes
Z:vmp.Chris Partington
K:F
cB|AFGA Bcde|feag fFGA|BAdc BAGF|FEGE CdcB|!
AFGA NBcde|feag fFGA|BdcB AGFE|G2F2F2:|!
|:(cB)|Afff afff|Bggg bgga|bagf edcB|AGFE DdcB|!
AFGA Bcde|feag fFGA|BdcB AGFE|G2F2F2:|]
